svgs/solid/calendar-clock.svg

<svg xmlns="http://www.w3.org/2000/svg" viewBox="0 0 576 512"><!-- Font Awesome Pro 6.0.0-alpha2 by @fontawesome - https://fontawesome.com License - https://fontawesome.com/license (Commercial License) --><path d="M448 112C448 85.49 426.51 64 400 64H352V32C352 14.4 337.6 0 320 0H320C302.4 0 288 14.4 288 32V64H160V32C160 14.4 145.6 0 128 0H128C110.4 0 96 14.4 96 32V64H48C21.49 64 0 85.49 0 112V160H448V112ZM432 224C352.375 224 288 288.375 288 368S352.375 512 432 512S576 447.625 576 368S511.625 224 432 224ZM480 384H425.75C420.375 384 416 379.625 416 374.25V304C416 295.162 423.164 288 432 288C440.838 288 448 295.162 448 304V352H480C488.838 352 496 359.162 496 368C496 376.836 488.838 384 480 384ZM256 368C256 270.799 334.799 192 432 192H0V464C0 490.5 21.5 512 48 512H331.002C285.691 480.158 256 427.586 256 368Z"/></svg>

<svg xmlns="http://www.w3.org/2000/svg" viewBox="0 0 576 512"><!--! Font Awesome Pro 6.4.0 by @fontawesome - https://fontawesome.com License - https://fontawesome.com/license (Commercial License) Copyright 2023 Fonticons, Inc. --><path d="M96 32V64H48C21.5 64 0 85.5 0 112v48H448V112c0-26.5-21.5-48-48-48H352V32c0-17.7-14.3-32-32-32s-32 14.3-32 32V64H160V32c0-17.7-14.3-32-32-32S96 14.3 96 32zM448 192H432 0V464c0 26.5 21.5 48 48 48H330.8C285.6 480.1 256 427.5 256 368c0-97.2 78.8-176 176-176c5.4 0 10.7 .2 16 .7V192zM576 368a144 144 0 1 0 -288 0 144 144 0 1 0 288 0zM432 288c8.8 0 16 7.2 16 16v48h32c8.8 0 16 7.2 16 16s-7.2 16-16 16H432c-8.8 0-16-7.2-16-16V304c0-8.8 7.2-16 16-16z"/></svg>
